X:10
T: Das Dollerlied
N: A0374B
O: Europa, Mitteleuropa, Deutschland
N: Werlins Hs. 1646 S. 2946.
R: Romanze, Ballade, Lied, Personenlied
M: 4/4
L: 1/4
K: D
B | BAG=F | E2E=F | GABG | =F2z
B | BAG=F | E2E=F | GABG | =F2z
F | =FEFG | A2A=F | =FFEE | D2z
A | AAAB | A2=FF | AABG | =F2AF | =FDE=C | B,2z

